tools/download-figma-icons/icons/outlined-large/window-alarm.svg

<svg width="64" height="64" viewBox="0 0 64 64" fill="none" xmlns="http://www.w3.org/2000/svg">
<path fill-rule="evenodd" clip-rule="evenodd" d="M32.0001 54C34.2301 54 36.1031 55.479 36.7451 57.5H53.0001V34H11.0001V57.5H27.2551C27.8961 55.479 29.7691 54 32.0001 54ZM30.0001 59C30.0001 60.103 30.8971 61 32.0001 61C33.1021 61 34.0001 60.103 34.0001 59C34.0001 57.897 33.1021 57 32.0001 57C30.8971 57 30.0001 57.897 30.0001 59ZM13.4391 9.469L16.9081 6H11.0001V31H12.9381L31.4111 12.527C31.9971 11.941 32.9461 11.941 33.5321 12.527C34.1181 13.113 34.1181 14.062 33.5321 14.648L17.1811 31H42.9161L48.5061 25.41C49.0921 24.824 50.0411 24.824 50.6271 25.41C51.2131 25.996 51.2131 26.945 50.6271 27.531L47.1581 31H53.0001V12.121L42.5601 22.561C42.2671 22.854 41.8841 23 41.5001 23C41.1161 23 40.7321 22.854 40.4391 22.561C39.8531 21.975 39.8531 21.025 40.4391 20.439L53.0001 7.879V6H21.1501L15.5601 11.59C15.2671 11.883 14.8841 12.029 14.5001 12.029C14.1161 12.029 13.7321 11.883 13.4391 11.59C12.8531 11.004 12.8531 10.055 13.4391 9.469ZM9.50012 3H54.5001C55.3281 3 56.0001 3.672 56.0001 4.5V59C56.0001 59.828 55.3281 60.5 54.5001 60.5H36.7451C36.1031 62.521 34.2301 64 32.0001 64C29.7691 64 27.8961 62.521 27.2551 60.5H9.50012C8.67212 60.5 8.00012 59.828 8.00012 59V4.5C8.00012 3.672 8.67212 3 9.50012 3ZM19.9795 46.9795C19.3935 47.5655 19.3935 48.5145 19.9795 49.1005C20.5655 49.6865 21.5145 49.6865 22.1005 49.1005C27.5595 43.6415 36.4405 43.6415 41.8995 49.1005C42.1925 49.3935 42.5765 49.5405 42.9595 49.5405C43.3435 49.5405 43.7275 49.3935 44.0205 49.1005C44.6065 48.5145 44.6065 47.5655 44.0205 46.9795C37.3915 40.3505 26.6085 40.3505 19.9795 46.9795ZM24.2217 51.2217C23.6357 51.8077 23.6357 52.7567 24.2217 53.3427C24.5147 53.6357 24.8987 53.7827 25.2827 53.7827C25.6657 53.7827 26.0497 53.6357 26.3427 53.3427C29.4617 50.2237 34.5377 50.2237 37.6577 53.3427C38.2427 53.9287 39.1927 53.9287 39.7787 53.3427C40.3647 52.7567 40.3647 51.8077 39.7787 51.2217C35.4897 46.9327 28.5107 46.9337 24.2217 51.2217Z" fill="black"/>
</svg>

<svg xmlns="http://www.w3.org/2000/svg" width="64" height="64" fill="none" viewBox="0 0 64 64"><path fill="currentColor" fill-rule="evenodd" d="M32 54c2.23 0 4.103 1.479 4.745 3.5H53V34H11v23.5h16.255C27.896 55.479 29.77 54 32 54m-2 5c0 1.103.897 2 2 2s2-.897 2-2-.898-2-2-2c-1.103 0-2 .897-2 2M13.44 9.469 16.907 6H11v25h1.938l18.473-18.473a1.5 1.5 0 1 1 2.121 2.121L17.182 31h25.734l5.59-5.59a1.5 1.5 0 1 1 2.121 2.121L47.158 31H53V12.121l-10.44 10.44A1.5 1.5 0 0 1 41.5 23a1.5 1.5 0 0 1-1.061-2.561L53 7.879V6H21.15l-5.59 5.59a1.5 1.5 0 0 1-1.06.439 1.5 1.5 0 0 1-1.061-2.56M9.5 3h45A1.5 1.5 0 0 1 56 4.5V59a1.5 1.5 0 0 1-1.5 1.5H36.745C36.103 62.521 34.23 64 32 64s-4.104-1.479-4.745-3.5H9.5A1.5 1.5 0 0 1 8 59V4.5A1.5 1.5 0 0 1 9.5 3m10.48 43.98a1.5 1.5 0 1 0 2.12 2.12c5.46-5.459 14.34-5.459 19.8 0a1.496 1.496 0 0 0 2.12 0 1.5 1.5 0 0 0 0-2.12c-6.629-6.63-17.412-6.63-24.04 0m4.242 4.242a1.5 1.5 0 1 0 2.12 2.12c3.12-3.118 8.196-3.118 11.316 0a1.5 1.5 0 1 0 2.12-2.12c-4.288-4.29-11.267-4.288-15.556 0" clip-rule="evenodd"/></svg>
